X:1
T:Der Lindenbaum
T:Franz Schubert 1827 (1797-1828)
T:Wilhelm Müller, 1822 (1794-1827)
T:Copyright © PriMoz HladniK
T:Der Lindenbaum
T:Copyright © PriMoz HladniK
T:Copyright © PriMoz HladniK
T:Copyright © PriMoz HladniK
T:Copyright © PriMoz HladniK
T:Copyright © PriMoz HladniK
T:Copyright © PriMoz HladniK
T:Copyright © PriMoz HladniK
T:Copyright © PriMoz HladniK
C:Franz Schubert 1827 (1797-1828)
Z:Wilhelm Müller, 1822 (1794-1827)
Z:Copyright © PriMoz HladniK
%%score 1 { ( 2 5 ) | ( 3 4 ) }
L:1/8
M:3/4
K:E
V:1 treble-8 nm="Voice" snm="Voice"
V:2 treble nm="Piano" snm="Pno."
V:5 treble 
V:3 bass 
V:4 bass 
V:1
"^Mäßig" z6 | z6 | z6 | z6 | z6 | z6 | z6 | z4 z B | B3 G GG | G2 E3 E | F3 G (3(AG)F | E4 z B | %12
w: |||||||Am|Brun- nen vor dem|To- re da|steht ein Lin- * den-|baum; Ich|
 B3 G GG | G2 E2 z E | F3 G (3(AG)F | [EE]8 | F3 F FF | (G>A) B2 z B | c3 B GE | F4 z F | F3 F FF | %21
w: traumt' in sei- nem|Schat- ten so|man- chen sü- * ßen|Traum. Ich|schnitt in sei- ne|Rin- * de so|man- ches lie- be|Wort; es|zog in Freund und|
 (G>A) B2 z B | (e2 B)G A>F | E4 z2 ||[K:Emin] z6 | z6 | z6 | z4 z B | B3 G G>G | G2 E2 z E | %30
w: Lei- * de zu|ihm _ mich im- mer-|fort.||||Ich|mußst auch heu- te|wan- dern. vor-|
 F3 G (3(AG)F | [EB]8 | B3 G GG | G2 E2 z E | F3 G (3(AG)F | E4 z E ||[K:E] F3 F FF | %37
w: bei im tie- * fer|Nacht, da|hab ih noch ihm|Dun- kel die|Au- gen zu _ ge-|macht. Und|sei- ne Zwei- ge|
 (G>A) B2 z B | c3 B GE | F4 z F | F3 F FF | (G>A) B2 z B | (e2 B)G A>F | E4 z2 | z4 z F | %45
w: rausch- * ten, als|rie- fen sie mir|zu: kom|her zu mir, Ge-|se- * le, hier|findst _ du dei- ne|Ruh.|Die|
 F3 F FA | =G2 E2 z E | F3 F B>A | =G4 z B | ^B3 =B ^B=B | ^B2 ^B,2 z B, | ^B,3 B, B,B, | B,4 z2 | %53
w: kal- te Win- de|blie- sen mir|grad ins An- ge-|sicht, der|Hut flog mir vom|Kop- fe, ich|wen- de- te mich|nicht.|
 z6 | z6 | z6 | z6 | z4 !fermata!z B | B3 G GG | G2 E2 z E | F3 G (3(AG)F | E4 z B | B3 G GG | %63
w: ||||Nun|bin ich man- che|Stun- de ent-|fernt von je- * nem|Ort, und|im- mer hör ich's|
 G2 E2 z E | F3 G (3(AG)F | E4 z E | F3 F FF | (G>A) B z z B | c3 B GE | F4 z F | F3 F FF | %71
w: rausch- en: du|fän- dest Ru- * he|dort! Nun|bin ich man- che|Stun- * de ent-|fernt von je- nem|Ort, und|im- mer hör ich's|
 G>A B2 z B | e2 BG AF | B4 z B | (e2 B)G (3BAF | E4 z2 | z6 | z6 | z6 | z6 | z6 | z6 |] %82
w: rausch- * en: du|fän- * dest Ru- *|dort! du|fän- * dest Ru- * he|dort!|||||||
V:2
"^Mäßig"[I:staff +1] (3(G,/[I:staff -1]E/[I:staff +1]G,/ (3F,/[I:staff -1]D/[I:staff +1]F,/ (3A,/[I:staff -1]E/[I:staff +1]A,/ (3B,/[I:staff -1]G/[I:staff +1]B,/ (3A,/[I:staff -1]F/[I:staff +1]A,/ (3G,/[I:staff -1]E/[I:staff +1]G,/) | %1
 [F,B,]>[I:staff -1](c !>!B4) | (3(G/e/G/ (3F/d/F/ (3G/e/G/ (3B/g/B/ (3A/f/A/ (3G/e/G/) | %3
 (3(F/d/F/ (3E/c/E/ (3D/B/D/ (3C/A/C/ (3B,/G/B,/ (3A,/F/A,/) | %4
 (3(G,/E/G,/ (3A,/F/A,/ (3G,/E/G,/ (3A,/F/A,/ (3G,/E/G,/ (3=D/^E/D/) | %5
 (3(C/F/C/ (3[^EG]/C/[EG]/ .[FA])!<(!(.[CFA] .[DFA]!<)!.[=EFA]) | %6
 ([FA]3/2!>(![EG]/4[B,F]/4)!>)! [B,F]4 | [FA]3/2[EG]/4[B,F]/4 [B,F]3 [B,GB] | %8
 [B,GB]3 (.[B,EG].[B,EG].[B,EG]) | [B,EG]2 [G,B,E]2 z [B,E] | [B,EF]4 [B,DF]2 | %11
 [G,B,E] ([GB][EG][GB][FA][B,F]) | [G,E] [B,GB]2 (.[B,EG].[B,EG].[B,EG]) | %13
 ([B,EG]2 [G,B,E]2) z [B,E] | [B,EF]4 [B,DF]2 | [G,B,E] ([GB][EG][GB][FA][EG]) | %16
 [CEF]3 (.[CEF].[B,DF].[B,DF]) | [EG]>[FA] [B,GB]3 ([GB] | ([Ac]3) [GB] [EG][B,E]) | %19
 [B,DF]3/2(B/4c/4 B>)([EG] [DB]2) | [CEF]3 (.[CEF] .[B,DF].[B,DF]) | ([EG]>[FA] [B,GB]3) [GB] | %22
({B} [Ge]2 [GB])([EG][FA]>[B,F]) | [G,E]3/2G/4c/4 B>[Fd] [Ee]2 || %24
[K:Emin][I:staff +1] (3(G,/[I:staff -1]E/[I:staff +1]G,/ (3F,/[I:staff -1]^D/[I:staff +1]F,/ (3G,/[I:staff -1]E/[I:staff +1]G,/ (3B,/[I:staff -1]G/[I:staff +1]B,/ (3A,/[I:staff -1]F/[I:staff +1]A,/ (3G,/[I:staff -1]E/[I:staff +1]G,/) | %25
 [F,B,]>[I:staff -1](c !>!B4) | (3G/e/G/ (3F/^d/F/ (3G/e/G/ (3B/g/B/ (3A/f/A/ (3G/e/G/ | %27
 [F^d] z z2 z2 | (3([G,B,]EF) (G>B,) G z | (3([G,B,]EF) (G>B,) G z | (3(B,EF (3CEF (3B,^DF) | %31
 (3([G,B,]EG !>!B>G E) z | (3([G,B,]EF) (!>!G>B,) G z | (3([G,B,]EF) (!>!G>B,) G z | %34
 (3(B,EF (3CEF (3B,^DF) | (3([G,B,E]GB !>!e>B e) z ||[K:E] (3(B,[DF][EG] [FA]2 [B,F]) z | %37
 (3(B,[EG][FA] [GB]2 [EG]) z | (3(B,EG [Ac][GB] [EG][B,E]) | [B,DF]3/2(B/4c/4 B>)([EG] [DB]) z | %40
 (3(B,[DF][EG] [FA]2 [B,F]) z | (3(B,[EG][FA] [GB]2 [EG]) z | (3([EG][GB][Be] [GB][EG][FA]>[B,F]) | %43
 [G,E]3/2(G/4c/4 B>)([Fd] [Ee]) z | %44
!f![I:staff +1] (3(=G,/[I:staff -1]E/[I:staff +1]G,/ (3F,/[I:staff -1]D/[I:staff +1]F,/ (3G,/[I:staff -1]E/[I:staff +1]G,/ (3^A,/[I:staff -1]=G/[I:staff +1]A,/ (3B,/[I:staff -1]F/[I:staff +1]B,/ (3C/[I:staff -1]E/[I:staff +1]C/) | %45
!p![I:staff -1] (3(B,/B/B,/ (3z/ c/^B,/ (3z/ B/=B,/ (3z/ F/[I:staff +1]F,/[I:staff -1] (3z/[I:staff +1] D/D,/[I:staff -1] (3z/[I:staff +1] B,/B,,/) | %46
 (3(=G,/[I:staff -1]E/[I:staff +1]G,/ (3F,/[I:staff -1]D/[I:staff +1]F,/ (3G,/[I:staff -1]E/[I:staff +1]G,/ (3^A,/[I:staff -1]=G/[I:staff +1]A,/ (3B,/[I:staff -1]F/[I:staff +1]B,/ (3=C/[I:staff -1]E/[I:staff +1]C/) | %47
[I:staff -1] (3B,/B/B,/ (3z/ ^B/^B,/ (3z/ =B/=B,/ (3z/ F/[I:staff +1]F,/[I:staff -1] z2 | %48
"^cresc." x6 | x6 | x6 | x6 | %52
 (3(B,/G/B,/ (3C/A/C/ (3^C/^A/C/!<(! (3=D/B/D/ (3^D/B/D/ (3E/^B/!<)!E/) | %53
!>(! (3(D/B/D/ (3E/=c/E/ (3D/B/D/ (3^C/^A/C/)!>)! (3(=C/=A/C/ (3B,/^G/B,/) | %54
 (3^B,/A/B,/ (3=B,/G/B,/ (3A,/F/A,/ (3G,/^E/G,/ (3A,/F/A,/ (3G,/E/G,/ | %55
 (3A,/F/A,/ (3^A,/F/A,/ (3B,/F/B,/ (3^B,/F/B,/ (3=B,/F/B,/ (3[EG]/B,/[EG]/ | %56
 [FA]3/2[EG]/4[B,F]/4 [B,F]4 | [FA]3/2[EG]/4[B,F]/4 !fermata![B,F]3 z | (3(GBe B>G B) z | %59
 (3(GBe B>G B) z | (3(ABd B>A B) z | (3(GBe B>G B) z | (3(GBe B>G B) z | (3(GBe B>G B) z | %64
 (3(ABd B>A B) z | (3(GBe B>G B) z | (3([B,B][Dd][Ff] [Dd]>[B,B] [Dd]) z | %67
 (3([B,B][Ee][Gg] [Ee]>[B,B] [Ee]) z | (3(B,EG [Ac][GB][EG][B,E]) | %69
 [B,DF]3/2(B/4c/4 B>)([EG] [DB]2) | (3([B,B][Dd][Ff] [Dd]>[B,B] [Dd]) z | %71
 (3([B,B][Ee][Gg] [Ee]>[B,B] [Ee]) z | (3([EG][GB][Be]) ([GB][EG][FA][B,DF]) | %73
 [B,EGB]2- (3[B,EGB]Be (3geB | (3([EG][GB][Be] [GB][EG] [FA]>[B,F]) | %75
 [G,E]3/2(G/4c/4 B>)([Fd] [Ee]) z | %76
 (3(G,/E/G,/ (3F,/D/F,/ (3G,/E/G,/ (3B,/G/B,/ (3G,/F/A,/ (3G,/E/G,/) | [F,A,]>c B4 | %78
 (3(G/e/G/ (3F/d/F/ (3G/e/G/ (3B/g/B/ (3A/f/A/ (3G/e/G/) | %79
 (3(F/d/F/ (3E/c/E/ (3D/B/D/ (3C/A/C/ (3B,/G/B,/ (3A,/F/A,/) | %80
 (3(G,/E/G,/ (3A,/F/A,/ (3G,/E/G,/ (3[DF]/B,/[DF]/ (3[EG]/B,/[EG]/ (3[DF]/A,/[DF]/) | %81
 (([A,DF]2 !fermata![G,B,E]4)) |] %82
V:3
 [E,,B,,]6 | [B,,,B,,] z z2 z2 | [E,B,-]6 | B, z/ C,/ !>!B,,3 ^B,, | C,^B,,"^cresc."C,B,,C,=B,, | %5
 A,,G,,F,,=E,,D,,C,, | C,,6 |!ppp! B,,,4- B,,,!p![E,,E,] | [E,,E,]3 E,,G,,B,, | E,4 z G,, | %10
 B,,4 B,,2 | E,, [G,B,][E,G,][G,B,][F,A,][B,,F,] | [E,,G,,E,] E,2 E,,G,,B,, | E,4 z G,, | %14
 B,,4 B,,2 | E,, [G,B,][E,G,][G,B,][F,A,][E,G,] | %16
 [^A,,F,]3!<(! .[A,,F,].[=A,,B,,F,]!<)!.[A,,B,,F,] |!>(! [B,,E,]2 [B,,E,]3!>)! [G,B,] | %18
 !>![A,C]3 [G,B,] [E,G,][G,,E,] | F,3/2!pp!B,/4C/4 !>!B,>[E,G,] [B,,F,]2 | %20
 [^A,,F,]3 .[A,,F,] .[=A,,B,,F,].[A,,F,] | [B,,E,]2 [B,,E,]3 [G,B,] | %22
{B,} [G,E]2 [G,B,][E,G,][F,A,]>[B,,F,] | [E,,G,,E,]3/2G,/4C/4 B,[B,,A,]/[E,G,]/- [E,G,]2 || %24
[K:Emin] [E,,B,,-]6 | [B,,,B,,] z z2 z2 | [E,B,-]6 |!pp! [B,,B,]>C,, B,,,4 | %28
 (3[E,,B,,]E,F, !>!G,>B,, G, z | (3[E,,B,,]E,F, !>!G,>B,, G, z | (3B,,E,F, (3C,E,F, (3B,,^C,F, | %31
 (3[E,,B,,]E,G, !>!B,>G, E, z | (3[E,,B,,]E,F, !>!G,>B,, G, z | (3[E,,B,,]E,F, !>!G,>B,, G, z | %34
 (3B,,E,F, (3C,E,F, (3B,,^D,F, | (3[E,,B,,E,]G,B, !>!E>B, E z ||[K:E] (3B,,F,G, !>!A,2 [B,,F,] z | %37
 (3B,,[E,G,][F,A,] !>![G,B,]2 [E,G,] z |!<(! (3B,,E,G, [A,C]!<)!!>(![G,B,] [E,G,]!>)![G,,E,] | %39
 [B,,F,]3/2B,/4C/4 !>!B,>[E,G,] [B,,F,] z | (3B,,F,G, !>!A,2 [B,,F,] z | %41
 (3B,,[E,G,][F,A,] !>![G,B,]2 [E,G,] z |!>(! (3[E,G,][G,B,][B,E]!>)! [G,B,][E,G,][F,A,]>[B,,F,] | %43
 [E,,G,,E,]3/2G,/4C/4 !>!B,>[B,,A,] [E,G,] z | =C,,6 | B,,,^B,,=B,,F,,D,,B,,, | z6 | %47
!p! x4 (3z/ D/D,/ (3z/ B,/B,,/ | %48
 (3=G,/[I:staff -1]E/[I:staff +1]G,/ (3F,/[I:staff -1]D/[I:staff +1]F,/ (3G,/[I:staff -1]E/[I:staff +1]G,/ (3F,/[I:staff -1]D/[I:staff +1]F,/ (3G,/[I:staff -1]E/[I:staff +1]G,/ (3F,/[I:staff -1]D/[I:staff +1]F,/ | %49
 (3=G,/[I:staff -1]E/[I:staff +1]G,/ (3_A,/[I:staff -1]=F/[I:staff +1]A,/ (3G,/[I:staff -1]E/[I:staff +1]G,/ (3A,/[I:staff -1]F/[I:staff +1]A,/ (3G,/[I:staff -1]E/[I:staff +1]G,/ (3A,/[I:staff -1]F/[I:staff +1]A,/ | %50
 (3G,/[I:staff -1]E/[I:staff +1]G,/ (3G,/[I:staff -1]^E/[I:staff +1]G,/ (3A,/[I:staff -1]^F/[I:staff +1]A,/ (3G,/[I:staff -1]E/[I:staff +1]G,/ (3A,/[I:staff -1]^F/[I:staff +1]A,/ (3G,/[I:staff -1]E/[I:staff +1]G,/ | %51
 (3A,/[I:staff -1]F/[I:staff +1]A,/ (3^A,/[I:staff -1]=G/[I:staff +1]A,/ (3=A,/[I:staff -1]F/[I:staff +1]A,/ (3^A,/[I:staff -1]G/[I:staff +1]A,/ (3=A,/[I:staff -1]F/[I:staff +1]A,/ (3^A,/[I:staff -1]G/[I:staff +1]A,/ | %52
 B,,,4 B,,,2 | B,,,4"^dim." B,,,2 | B,,,4 z2 | B,,,3!<(! .B,,,.B,,,!<)!.B,,, | B,,,6 | %57
!ppp! B,,,4 !fermata!B,,, z |!pp! (3G,B,E B,>G, B, z | (3G,B,E B,>G, B, z | (3A,B,D B,>A, B, z | %61
 (3G,B,E B,>G, B, z | (3G,B,E B,>G, B, z | (3G,B,E B,>G, B, z | (3A,B,D B,>A, B, z | %65
 (3G,B,E B,>G, B, z | !>![A,,B,,D,F,]4 z !wedge!B,, | !>![G,,B,,E,G,]4 z !wedge!G,, | %68
!<(! (3B,,E,G,!<)! [A,C]!>(![G,B,][E,G,]!>)![G,,E,] | [B,,F,]3/2B,/4C/4 !>!B,>[E,G,] [B,,F,]2 | %70
 !>![A,,B,,D,F,]4 z !wedge!B,, | !>![G,,B,,E,G,]4 z !wedge!G,, | %72
 (3!>![B,,E,G,][G,B,][B,E] [G,B,][E,G,][F,A,][A,,B,,D,F,] | %73
 [G,,B,,E,G,]2-!<(! (3[G,,B,,E,G,]B,E!<)!!>(! (3G!>)!EB, | %74
!<(! (3[E,G,]!<)![G,B,][B,E] [G,B,]!>(![E,G,] [F,A,]>!>)![B,,F,] | %75
 [E,,G,,E,]3/2G,/4C/4 !>!B,>[B,,A,] [E,G,] z | [E,,B,,]6 | [B,,,B,,] z z2 z2 | [E,B,]6 | %79
 [B,,B,]>C,"^dim." !>!B,,2- B,,^B,, |!<(! C,^B,,C,!<)!!>(!=B,,G,,!>)!"^dim."B,, | %81
 B,,2 !fermata!E,4 |] %82
V:4
 x6 | x6 | x6 | B,, x/ x9/2 | x6 | x6 | x6 | x6 | x6 | x6 | x6 | x6 | x6 | x6 | x6 | x6 | x6 | %17
 G,,>F,, E,,3 x | x6 | x6 | x6 | G,,>F,, E,,3 x | x6 | x6 ||[K:Emin] x6 | x x x2 x2 | x6 | x6 | %28
 x6 | x6 | x6 | x6 | x6 | x6 | x6 | x6 ||[K:E] (3:2:2B,,2 E, F,2 x x | x6 | x6 | x6 | %40
 (3:2:2B,,2 E, F,2 x2 | x6 | x6 | x6 | x6 | x6 | =C,,6 | B,,,^B,,=B,,F,,D,,B,,, | ^B,,,6 | %49
 C,,.=C,,.C,,.C,,.C,,.C,, | C,,6 | C,,.^B,,,.B,,,.B,,,.B,,,.B,,, | x6 | x6 | x6 | x6 | x6 | x6 | %58
 E,4- E,!wedge!B,, | E,4- E,!wedge!G,, | B,,4- B,,!wedge!B,, | E,4- E,!wedge!B,, | %62
 E,4- E,!wedge!G,, | E,4- E,!wedge!G,, | B,,4- B,,!wedge!B,, | E,4- E,!wedge!G,, | x6 | x6 | x6 | %69
 x6 | x6 | x6 | x6 | x6 | x6 | x6 | x6 | x6 | x6 | x6 | x6 | x6 |] %82
V:5
 x6 | x6 | x6 | x6 | x6 | x6 | x6 | x6 | x6 | x6 | x6 | x6 | x6 | x6 | x6 | x6 | x6 | B,2 x4 | x6 | %19
 x6 | x6 | B,2 x4 | x6 | x6 ||[K:Emin] x6 | x6 | x6 | x6 | x6 | x6 | x6 | x6 | x6 | x6 | x6 | x6 || %36
[K:E] x6 | x6 | x6 | x6 | x6 | x6 | x6 | x6 | x6 | x6 | x6 | x6 | x6 | x6 | x6 | x6 | x6 | x6 | %54
 x6 | x6 | x6 | x6 | x6 | x6 | x6 | x6 | x6 | x6 | x6 | x6 | x6 | x6 | x6 | x6 | x6 | x6 | x6 | %73
 x6 | x6 | x6 | x6 | x6 | x6 | x6 | x6 | x6 |] %82

